static/img/logo.svg

<?xml version="1.0" encoding="UTF-8" standalone="no" ?>
<!DOCTYPE svg PUBLIC "-//W3C//DTD SVG 1.1//EN" "http://www.w3.org/Graphics/SVG/1.1/DTD/svg11.dtd">
<svg xmlns="http://www.w3.org/2000/svg" xmlns:xlink="http://www.w3.org/1999/xlink" version="1.1" width="6000" height="6000" viewBox="0 0 6000 6000" xml:space="preserve">
<desc>Created with Fabric.js 5.2.4</desc>
<defs>
</defs>
<rect x="0" y="0" width="100%" height="100%" fill="transparent"></rect>
<g transform="matrix(1 0 0 1 3000 3000)" id="597c275c-9a74-4626-9b32-e02a5b155313"  >
<rect style="stroke: none; stroke-width: 1; stroke-dasharray: none; stroke-linecap: butt; stroke-dashoffset: 0; stroke-linejoin: miter; stroke-miterlimit: 4; fill: rgb(255,255,255); fill-rule: nonzero; opacity: 1; visibility: hidden;" vector-effect="non-scaling-stroke"  x="-3000" y="-3000" rx="0" ry="0" width="6000" height="6000" />
</g>
<g transform="matrix(Infinity NaN NaN Infinity 0 0)" id="46c23392-abc4-4fc5-9006-66cab0b761de"  >
</g>
<g transform="matrix(45.61 0 0 45.61 3017.71 2560.65)"  >
<g style="" vector-effect="non-scaling-stroke"   >
		<g transform="matrix(1 0 0 1 -113.9 1.68)" id="path787"  >
<path style="stroke: none; stroke-width: 1; stroke-dasharray: none; stroke-linecap: butt; stroke-dashoffset: 0; stroke-linejoin: miter; stroke-miterlimit: 4; fill: rgb(0,0,0); fill-rule: nonzero; opacity: 1;" vector-effect="non-scaling-stroke"  transform=" translate(-88.33, -202.92)" d="M 81.324641 238.29414 L 81.324641 180.40614 Q 81.324641 176.66214 82.956641 173.78214 Q 84.58864100000001 170.90214 87.56464100000001 169.27014 Q 90.63664100000001 167.54214 94.66864100000001 167.54214 Q 97.74064100000001 167.54214 100.14064 168.69413999999998 Q 102.63664 169.75014 104.26864 171.67013999999998 L 101.77264000000001 177.33413999999996 Q 100.23664000000001 175.70213999999996 98.41264100000001 175.03013999999996 Q 96.68464100000001 174.26213999999996 95.05264100000001 174.26213999999996 Q 92.94064100000001 174.26213999999996 91.500641 175.03013999999996 Q 90.060641 175.70213999999996 89.292641 177.14213999999996 Q 88.620641 178.48613999999995 88.620641 180.40613999999997 L 88.620641 238.29413999999997 L 85.260641 238.29413999999997 Q 84.20464100000001 238.29413999999997 83.244641 238.29413999999997 Q 82.28464100000001 238.29413999999997 81.324641 238.29413999999997 z M 72.396641 195.28614 L 72.396641 188.56614 L 101.38864000000001 188.56614 L 101.38864000000001 195.28614 z" stroke-linecap="round" />
</g>
		<g transform="matrix(1 0 0 1 -70.18 11.95)" id="path789"  >
<path style="stroke: none; stroke-width: 1; stroke-dasharray: none; stroke-linecap: butt; stroke-dashoffset: 0; stroke-linejoin: miter; stroke-miterlimit: 4; fill: rgb(0,0,0); fill-rule: nonzero; opacity: 1;" vector-effect="non-scaling-stroke"  transform=" translate(-132.06, -213.19)" d="M 132.10862 239.25414 Q 124.62062 239.25414 118.76462000000001 235.89414 Q 113.00462 232.53413999999998 109.64462 226.58213999999998 Q 106.38062000000001 220.63013999999998 106.38062000000001 213.04613999999998 Q 106.38062000000001 205.55813999999998 109.64462 199.70213999999999 Q 113.00462 193.84614 118.76462000000001 190.48613999999998 Q 124.62062 187.12613999999996 132.10862 187.12613999999996 Q 139.50062 187.12613999999996 145.26062 190.48613999999998 Q 151.11661999999998 193.84614 154.38062 199.70213999999999 Q 157.74062 205.55813999999998 157.74062 213.04613999999998 Q 157.74062 220.63013999999998 154.38062 226.58213999999998 Q 151.11661999999998 232.53413999999998 145.26062 235.89414 Q 139.50062 239.25414 132.10862 239.25414 z M 132.10862 232.43814 Q 137.38862 232.43814 141.51662 229.94214 Q 145.64461999999997 227.35013999999998 147.94861999999998 223.03014 Q 150.25261999999998 218.61414 150.25261999999998 213.04613999999998 Q 150.25261999999998 207.47813999999997 147.94861999999998 203.15813999999997 Q 145.64461999999997 198.83813999999998 141.51662 196.43813999999998 Q 137.38862 193.94213999999997 132.10862 193.94213999999997 Q 126.82862 193.94213999999997 122.60462 196.43813999999998 Q 118.47662 198.83813999999998 116.07661999999999 203.25413999999998 Q 113.77261999999999 207.57413999999997 113.86861999999999 213.04613999999998 Q 113.77261999999999 218.61414 116.07661999999999 223.03014 Q 118.47662 227.35013999999998 122.60462 229.94214 Q 126.82862 232.43814 132.10862 232.43814 z" stroke-linecap="round" />
</g>
		<g transform="matrix(1 0 0 1 -19.87 11.47)" id="path791"  >
<path style="stroke: none; stroke-width: 1; stroke-dasharray: none; stroke-linecap: butt; stroke-dashoffset: 0; stroke-linejoin: miter; stroke-miterlimit: 4; fill: rgb(0,0,0); fill-rule: nonzero; opacity: 1;" vector-effect="non-scaling-stroke"  transform=" translate(-182.36, -212.71)" d="M 168.20466 238.29414 L 168.20466 188.18214 L 175.40465999999998 188.18214 L 175.59665999999999 201.52614 L 174.82865999999999 199.70213999999999 Q 175.88466 196.34213999999997 178.18866 193.46213999999998 Q 180.58866 190.58213999999998 183.85266 188.85413999999997 Q 187.11666 187.12613999999996 191.05265999999997 187.12613999999996 Q 192.68465999999998 187.12613999999996 194.12465999999998 187.41413999999997 Q 195.56465999999998 187.60613999999998 196.52465999999998 187.99013999999997 L 194.50866 196.05413999999996 Q 193.26066 195.47813999999997 191.91665999999998 195.28613999999996 Q 190.66866 194.99813999999995 189.51665999999997 194.99813999999995 Q 186.25265999999996 194.99813999999995 183.66065999999998 196.15013999999994 Q 181.06865999999997 197.30213999999992 179.24465999999998 199.41413999999995 Q 177.42065999999997 201.43013999999994 176.46066 204.11813999999995 Q 175.50065999999998 206.80613999999994 175.50065999999998 209.87813999999995 L 175.50065999999998 238.29413999999994 z" stroke-linecap="round" />
</g>
		<g transform="matrix(1 0 0 1 19.77 11.9)" id="path793"  >
<path style="stroke: none; stroke-width: 1; stroke-dasharray: none; stroke-linecap: butt; stroke-dashoffset: 0; stroke-linejoin: miter; stroke-miterlimit: 4; fill: rgb(0,0,0); fill-rule: nonzero; opacity: 1;" vector-effect="non-scaling-stroke"  transform=" translate(-222.01, -213.14)" d="M 223.98064 239.25414 Q 216.49264 239.25414 210.63664 235.99014 Q 204.87664 232.72614 201.61264 226.87014 Q 198.34864 221.01414 198.34864 213.43014 Q 198.34864 207.57414 200.17264 202.87014 Q 201.99664 198.07013999999998 205.26064 194.51814 Q 208.62064 190.96614 213.22863999999998 189.04613999999998 Q 217.83664 187.03014 223.21264 187.03014 Q 228.30064 187.03014 232.42864 188.85414 Q 236.65264 190.67814 239.62864 193.94214 Q 242.70064 197.11014 244.23664 201.52614 Q 245.77264 205.94214 245.58064 211.22214 L 245.48463999999998 214.58214 L 203.72464 214.58214 L 202.66863999999998 208.53414 L 240.01263999999998 208.53414 L 238.28463999999997 210.16614 L 238.28463999999997 207.86214 Q 238.09263999999996 204.40614000000002 236.26863999999998 201.23814000000002 Q 234.44463999999996 197.97414 231.08463999999998 195.95814000000001 Q 227.82063999999997 193.94214000000002 223.21263999999996 193.94214000000002 Q 217.83663999999996 193.94214000000002 213.90063999999995 196.15014000000002 Q 209.96463999999995 198.26214000000002 207.85263999999995 202.48614000000003 Q 205.74063999999996 206.71014000000002 205.74063999999996 212.95014000000003 Q 205.74063999999996 218.90214000000003 208.04463999999996 223.31814000000003 Q 210.34863999999996 227.63814000000002 214.57263999999995 230.03814000000003 Q 218.89263999999994 232.43814000000003 224.94063999999995 232.43814000000003 Q 228.49263999999994 232.43814000000003 231.94863999999995 231.28614000000005 Q 235.50063999999995 230.03814000000006 239.72463999999997 226.48614000000003 L 243.46863999999997 231.67014000000003 Q 241.26063999999997 233.87814000000003 238.18863999999996 235.60614000000004 Q 235.11663999999996 237.23814000000004 231.46863999999997 238.29414000000003 Q 227.82063999999997 239.25414000000004 223.98063999999997 239.25414000000004 z" stroke-linecap="round" />
</g>
		<g transform="matrix(1 0 0 1 75.74 11.71)" id="path795"  >
<path style="stroke: none; stroke-width: 1; stroke-dasharray: none; stroke-linecap: butt; stroke-dashoffset: 0; stroke-linejoin: miter; stroke-miterlimit: 4; fill: rgb(0,0,0); fill-rule: nonzero; opacity: 1;" vector-effect="non-scaling-stroke"  transform=" translate(-277.98, -212.95)" d="M 274.86067 239.25414 Q 268.62067 239.25414 263.53267000000005 235.79814000000002 Q 258.44467000000003 232.34214000000003 255.37267000000006 226.39014000000003 Q 252.30067000000005 220.43814000000003 252.30067000000005 212.85414000000003 Q 252.30067000000005 205.27014000000003 255.37267000000006 199.31814000000003 Q 258.44467000000003 193.36614000000003 263.72467000000006 190.00614000000002 Q 269.00467000000003 186.64614 275.62867000000006 186.64614 Q 279.46867000000003 186.64614 282.63667000000004 187.79814 Q 285.80467000000004 188.85414 288.20467 190.87014 Q 290.60467 192.88613999999998 292.14067 195.47814 Q 293.77267 198.07014 294.34867 201.04614 L 291.75667000000004 200.37414 L 291.75667000000004 187.70214 L 303.66067000000004 187.70214 L 303.66067000000004 238.29414000000003 L 291.66067000000004 238.29414000000003 L 291.66067000000004 226.19814000000002 L 294.44467000000003 225.71814000000003 Q 293.77267 228.31014000000005 291.94867000000005 230.80614000000003 Q 290.22067000000004 233.20614000000003 287.53267000000005 235.12614000000002 Q 284.94067000000007 236.95014000000003 281.67667000000006 238.10214000000002 Q 278.50867000000005 239.25414 274.8606700000001 239.25414 z M 278.12467000000004 228.79014 Q 282.25267 228.79014 285.42067000000003 226.77414000000002 Q 288.58867000000004 224.75814000000003 290.31667000000004 221.20614 Q 292.14067000000006 217.55814 292.14067000000006 212.85414 Q 292.14067000000006 208.24614 290.31667000000004 204.69414 Q 288.58867000000004 201.14214 285.42067000000003 199.12614 Q 282.25267 197.11014 278.12467000000004 197.11014 Q 273.99667000000005 197.11014 270.82867000000005 199.12614 Q 267.75667000000004 201.14213999999998 266.02867000000003 204.69414 Q 264.30067 208.24614 264.30067 212.85414 Q 264.30067 217.55814 266.02867000000003 221.20614 Q 267.75667000000004 224.75814 270.82867000000005 226.77414000000002 Q 273.99667000000005 228.79014 278.12467000000004 228.79014 z" stroke-linecap="round" />
</g>
		<g transform="matrix(1 0 0 1 122.3 -0.48)" id="path797"  >
<path style="stroke: none; stroke-width: 1; stroke-dasharray: none; stroke-linecap: butt; stroke-dashoffset: 0; stroke-linejoin: miter; stroke-miterlimit: 4; fill: rgb(0,0,0); fill-rule: nonzero; opacity: 1;" vector-effect="non-scaling-stroke"  transform=" translate(-324.54, -200.76)" d="M 318.73268 238.29414 L 318.73268 187.70213999999999 L 330.54068 187.70213999999999 L 330.54068 238.29413999999997 z M 324.49268 176.95014 Q 320.94068 176.95014 318.92468 175.22214 Q 317.00468 173.39813999999998 317.00468 170.13414 Q 317.00468 167.06214 319.02068 165.14214 Q 321.03668000000005 163.22214000000002 324.49268 163.22214000000002 Q 328.14068000000003 163.22214000000002 330.06068 165.04614000000004 Q 332.07668 166.77414000000005 332.07668 170.13414000000003 Q 332.07668 173.11014000000003 330.06068 175.03014000000002 Q 328.04467999999997 176.95014 324.49268 176.95014 z" stroke-linecap="round" />
</g>
</g>
</g>
</svg>

<svg width="68.707008mm" height="20.1168mm" viewBox="0 0 68.707008 20.1168" xmlns="http://www.w3.org/2000/svg" xmlns:svg="http://www.w3.org/2000/svg"><g transform="translate(-19.154944,-43.185857)"> <g aria-label="foreai" transform="scale(0.26458333)" id="text541"> <path d="m 81.324641,238.29414 v -57.888 q 0,-3.744 1.632,-6.624 1.632,-2.88 4.608,-4.512 3.072,-1.728 7.104,-1.728 3.072,0 5.471999,1.152 2.496,1.056 4.128,2.976 l -2.496,5.664 q -1.536,-1.632 -3.359999,-2.304 -1.728,-0.768 -3.36,-0.768 -2.112,0 -3.552,0.768 -1.44,0.672 -2.208,2.112 -0.672,1.344 -0.672,3.264 v 57.888 h -3.36 q -1.056,0 -2.016,0 -0.96,0 -1.92,0 z m -8.928,-43.008 v -6.72 h 28.991999 v 6.72 z" id="path787" /> <path d="m 132.10862,239.25414 q -7.488,0 -13.344,-3.36 -5.76,-3.36 -9.12,-9.312 -3.264,-5.952 -3.264,-13.536 0,-7.488 3.264,-13.344 3.36,-5.856 9.12,-9.216 5.856,-3.36 13.344,-3.36 7.392,0 13.152,3.36 5.856,3.36 9.12,9.216 3.36,5.856 3.36,13.344 0,7.584 -3.36,13.536 -3.264,5.952 -9.12,9.312 -5.76,3.36 -13.152,3.36 z m 0,-6.816 q 5.28,0 9.408,-2.496 4.128,-2.592 6.432,-6.912 2.304,-4.416 2.304,-9.984 0,-5.568 -2.304,-9.888 -2.304,-4.32 -6.432,-6.72 -4.128,-2.496 -9.408,-2.496 -5.28,0 -9.504,2.496 -4.128,2.4 -6.528,6.816 -2.304,4.32 -2.208,9.792 -0.096,5.568 2.208,9.984 2.4,4.32 6.528,6.912 4.224,2.496 9.504,2.496 z" id="path789" /> <path d="m 168.20466,238.29414 v -50.112 h 7.2 l 0.192,13.344 -0.768,-1.824 q 1.056,-3.36 3.36,-6.24 2.4,-2.88 5.664,-4.608 3.264,-1.728 7.2,-1.728 1.632,0 3.072,0.288 1.44,0.192 2.4,0.576 l -2.016,8.064 q -1.248,-0.576 -2.592,-0.768 -1.248,-0.288 -2.4,-0.288 -3.264,0 -5.856,1.152 -2.592,1.152 -4.416,3.264 -1.824,2.016 -2.784,4.704 -0.96,2.688 -0.96,5.76 v 28.416 z" id="path791" /> <path d="m 223.98064,239.25414 q -7.488,0 -13.344,-3.264 -5.76,-3.264 -9.024,-9.12 -3.264,-5.856 -3.264,-13.44 0,-5.856 1.824,-10.56 1.824,-4.8 5.088,-8.352 3.36,-3.552 7.968,-5.472 4.608,-2.016 9.984,-2.016 5.088,0 9.216,1.824 4.224,1.824 7.2,5.088 3.072,3.168 4.608,7.584 1.536,4.416 1.344,9.696 l -0.096,3.36 h -41.76 l -1.056,-6.048 h 37.344 l -1.728,1.632 v -2.304 q -0.192,-3.456 -2.016,-6.624 -1.824,-3.264 -5.184,-5.28 -3.264,-2.016 -7.872,-2.016 -5.376,0 -9.312,2.208 -3.936,2.112 -6.048,6.336 -2.112,4.224 -2.112,10.464 0,5.952 2.304,10.368 2.304,4.32 6.528,6.72 4.32,2.4 10.368,2.4 3.552,0 7.008,-1.152 3.552,-1.248 7.776,-4.8 l 3.744,5.184 q -2.208,2.208 -5.28,3.936 -3.072,1.632 -6.72,2.688 -3.648,0.96 -7.488,0.96 z" id="path793" /> <path d="m 274.86067,239.25414 q -6.24,0 -11.328,-3.456 -5.088,-3.456 -8.16,-9.408 -3.072,-5.952 -3.072,-13.536 0,-7.584 3.072,-13.536 3.072,-5.952 8.352,-9.312 5.28,-3.36 11.904,-3.36 3.84,0 7.008,1.152 3.168,1.056 5.568,3.072 2.4,2.016 3.936,4.608 1.632,2.592 2.208,5.568 l -2.592,-0.672 v -12.672 h 11.904 v 50.592 h -12 v -12.096 l 2.784,-0.48 q -0.672,2.592 -2.496,5.088 -1.728,2.4 -4.416,4.32 -2.592,1.824 -5.856,2.976 -3.168,1.152 -6.816,1.152 z m 3.264,-10.464 q 4.128,0 7.296,-2.016 3.168,-2.016 4.896,-5.568 1.824,-3.648 1.824,-8.352 0,-4.608 -1.824,-8.16 -1.728,-3.552 -4.896,-5.568 -3.168,-2.016 -7.296,-2.016 -4.128,0 -7.296,2.016 -3.072,2.016 -4.8,5.568 -1.728,3.552 -1.728,8.16 0,4.704 1.728,8.352 1.728,3.552 4.8,5.568 3.168,2.016 7.296,2.016 z" id="path795" /> <path d="m 318.73268,238.29414 v -50.592 h 11.808 v 50.592 z m 5.76,-61.344 q -3.552,0 -5.568,-1.728 -1.92,-1.824 -1.92,-5.088 0,-3.072 2.016,-4.992 2.016,-1.92 5.472,-1.92 3.648,0 5.568,1.824 2.016,1.728 2.016,5.088 0,2.976 -2.016,4.896 -2.016,1.92 -5.568,1.92 z" id="path797" /> </g></g></svg>
